src/assets/icons/star.svg

<svg width="14" height="14" viewBox="0 0 14 14" fill="none" xmlns="http://www.w3.org/2000/svg">
<g id="star">
<g clip-path="url(#clip0_156_4716)">
<path id="Vector" d="M10.9728 13.6728C10.8811 13.6728 10.7902 13.6514 10.7062 13.6071L7.00032 11.6586L3.29447 13.6071C3.10192 13.7087 2.86734 13.6911 2.69084 13.5635C2.51433 13.4352 2.4257 13.2182 2.46314 13.0027L3.17069 8.87658L0.173151 5.95469C0.0165115 5.80264 -0.039267 5.57417 0.0279732 5.3671C0.0952134 5.16004 0.274776 5.00875 0.49025 4.97742L4.63316 4.37531L6.48609 0.62056C6.67864 0.229345 7.32124 0.229345 7.51379 0.62056L9.36672 4.37531L13.5096 4.97742C13.7251 5.00875 13.9047 5.16004 13.9719 5.3671C14.0391 5.57417 13.9834 5.80264 13.8267 5.95469L10.8292 8.87658L11.5367 13.0027C11.5734 13.2182 11.4855 13.4352 11.309 13.5635C11.2097 13.6361 11.0913 13.6728 10.9728 13.6728ZM7.00032 10.4384C7.09201 10.4384 7.1837 10.4605 7.26699 10.5041L10.2118 12.0522L9.64943 8.77343C9.61734 8.58699 9.67923 8.3975 9.81447 8.26607L12.1962 5.944L8.90368 5.46567C8.71724 5.43817 8.55525 5.32126 8.47273 5.15239L7.00032 2.16938L5.52791 5.15239C5.44463 5.32126 5.2834 5.43893 5.09697 5.46567L1.80449 5.944L4.18617 8.26607C4.32141 8.3975 4.38254 8.58699 4.35121 8.77343L3.78884 12.0522L6.73365 10.5041C6.8177 10.4605 6.90939 10.4384 7.00032 10.4384Z" fill="black"/>
</g>
</g>
<defs>
<clipPath id="clip0_156_4716">
<rect width="14" height="14" fill="white"/>
</clipPath>
</defs>
</svg>

<svg xmlns="http://www.w3.org/2000/svg" fill="none" viewBox="0 0 14 14"><g clip-path="url(#a)"><path fill="#000" d="M10.973 13.673a.6.6 0 0 1-.267-.066L7 11.66l-3.706 1.948a.574.574 0 0 1-.83-.604l.707-4.126L.173 5.955a.573.573 0 0 1 .317-.978l4.143-.602L6.486.621c.193-.392.835-.392 1.028 0l1.853 3.754 4.143.602a.573.573 0 0 1 .317.978l-2.998 2.922.708 4.126a.573.573 0 0 1-.564.67M7 10.438c.092 0 .184.022.267.066l2.945 1.548-.563-3.279a.57.57 0 0 1 .165-.507l2.382-2.322-3.292-.478a.57.57 0 0 1-.431-.314L7 2.17 5.528 5.152a.57.57 0 0 1-.431.314l-3.293.478 2.382 2.322c.135.132.197.321.165.507l-.562 3.28 2.945-1.549A.6.6 0 0 1 7 10.438"/></g><defs><clipPath id="a"><path fill="#fff" d="M0 0h14v14H0z"/></clipPath></defs></svg>
